icons/sparkle-32.svg

<svg width="32" height="32" viewBox="0 0 32 32" fill="none" xmlns="http://www.w3.org/2000/svg">
<g clip-path="url(#clip0_8687_112282)">
<path d="M15.061 2.56494C15.3813 1.69 16.6187 1.69 16.939 2.56494L17.895 5.17616C19.4126 9.32121 22.6788 12.5874 26.8238 14.105L29.4351 15.061C30.31 15.3813 30.31 16.6187 29.4351 16.939L26.8238 17.895C22.6788 19.4126 19.4126 22.6788 17.895 26.8238L16.939 29.4351C16.6187 30.31 15.3813 30.31 15.061 29.4351L14.105 26.8238C12.5874 22.6788 9.32121 19.4126 5.17616 17.895L2.56494 16.939C1.69 16.6187 1.69 15.3813 2.56494 15.061L5.17616 14.105C9.32121 12.5874 12.5874 9.32121 14.105 5.17616L15.061 2.56494Z" fill="black"/>
</g>
<defs>
<clipPath id="clip0_8687_112282">
<rect width="32" height="32" fill="white"/>
</clipPath>
</defs>
</svg>

<svg xmlns="http://www.w3.org/2000/svg" width="32" height="32" viewBox="0 0 32 32"><path d="M15.061 2.565c.32-.875 1.558-.875 1.878 0l.956 2.611a15.003 15.003 0 0 0 8.929 8.929l2.611.956c.875.32.875 1.558 0 1.878l-2.611.956a15.003 15.003 0 0 0-8.929 8.929l-.956 2.611c-.32.875-1.558.875-1.878 0l-.956-2.611a15.003 15.003 0 0 0-8.929-8.929l-2.611-.956c-.875-.32-.875-1.558 0-1.878l2.611-.956a15.003 15.003 0 0 0 8.929-8.929Z"/></svg>
